X:1
T:Balleydesmond Polka #1
R:polka
O:Ireland
M:2/4
L:1/8
K:G
"Am" EA A>B | cd eg | "G" G2 G>A | GE ED |
"Am" EA A>B | cd eg | "G" ge  dB |1 "G" BA A2 :|2 "Am" BA A2 ||
"Am" a>g ab | ag ef | "G" g>f ga | ge ed |
"Am" ea a>b | ag ef | "G" ge  dB |1 "Am" BA A2 :|2 "G" BA A2 |]
